docs/img/vax/leaky.svg

<svg xmlns="http://www.w3.org/2000/svg" xmlns:xlink="http://www.w3.org/1999/xlink" width="1920" zoomAndPan="magnify" viewBox="0 0 1440 225" height="300" preserveAspectRatio="xMidYMid meet" version="1.0"><defs><clipPath id="3107f2a591"><path d="M 22.5 78.164062 L 134.292969 78.164062 L 134.292969 168.394531 L 22.5 168.394531 Z M 22.5 78.164062 " clip-rule="nonzero"/></clipPath><clipPath id="08104cce3e"><path d="M 22.5 56.605469 L 134.25 56.605469 L 134.25 168.355469 L 22.5 168.355469 Z M 22.5 56.605469 " clip-rule="nonzero"/></clipPath><clipPath id="41fb370315"><path d="M 164.832031 78.164062 L 276.621094 78.164062 L 276.621094 168.394531 L 164.832031 168.394531 Z M 164.832031 78.164062 " clip-rule="nonzero"/></clipPath><clipPath id="7bdfe69d8f"><path d="M 164.832031 56.605469 L 276.582031 56.605469 L 276.582031 168.355469 L 164.832031 168.355469 Z M 164.832031 56.605469 " clip-rule="nonzero"/></clipPath><clipPath id="35504b2e48"><path d="M 307.578125 78.164062 L 419.371094 78.164062 L 419.371094 168.394531 L 307.578125 168.394531 Z M 307.578125 78.164062 " clip-rule="nonzero"/></clipPath><clipPath id="ea7a80fcec"><path d="M 307.578125 56.605469 L 419.328125 56.605469 L 419.328125 168.355469 L 307.578125 168.355469 Z M 307.578125 56.605469 " clip-rule="nonzero"/></clipPath><clipPath id="189cb5a76c"><path d="M 449.835938 78.164062 L 561.628906 78.164062 L 561.628906 168.394531 L 449.835938 168.394531 Z M 449.835938 78.164062 " clip-rule="nonzero"/></clipPath><clipPath id="059e0babf8"><path d="M 449.835938 56.605469 L 561.585938 56.605469 L 561.585938 168.355469 L 449.835938 168.355469 Z M 449.835938 56.605469 " clip-rule="nonzero"/></clipPath><clipPath id="8c294fc8df"><path d="M 592.167969 78.164062 L 703.960938 78.164062 L 703.960938 168.394531 L 592.167969 168.394531 Z M 592.167969 78.164062 " clip-rule="nonzero"/></clipPath><clipPath id="3375ea2e00"><path d="M 592.167969 56.605469 L 703.917969 56.605469 L 703.917969 168.355469 L 592.167969 168.355469 Z M 592.167969 56.605469 " clip-rule="nonzero"/></clipPath><clipPath id="a9a957d1b0"><path d="M 734.914062 78.164062 L 846.707031 78.164062 L 846.707031 168.394531 L 734.914062 168.394531 Z M 734.914062 78.164062 " clip-rule="nonzero"/></clipPath><clipPath id="5e07bbd508"><path d="M 734.914062 56.605469 L 846.664062 56.605469 L 846.664062 168.355469 L 734.914062 168.355469 Z M 734.914062 56.605469 " clip-rule="nonzero"/></clipPath><clipPath id="61d02984b3"><path d="M 877.882812 78.164062 L 989.675781 78.164062 L 989.675781 168.394531 L 877.882812 168.394531 Z M 877.882812 78.164062 " clip-rule="nonzero"/></clipPath><clipPath id="74b25fee25"><path d="M 877.882812 56.605469 L 989.632812 56.605469 L 989.632812 168.355469 L 877.882812 168.355469 Z M 877.882812 56.605469 " clip-rule="nonzero"/></clipPath><clipPath id="b85b1ca1e0"><path d="M 1020.210938 78.164062 L 1132 78.164062 L 1132 168.394531 L 1020.210938 168.394531 Z M 1020.210938 78.164062 " clip-rule="nonzero"/></clipPath><clipPath id="12371ec2ef"><path d="M 1020.210938 56.605469 L 1131.960938 56.605469 L 1131.960938 168.355469 L 1020.210938 168.355469 Z M 1020.210938 56.605469 " clip-rule="nonzero"/></clipPath><clipPath id="3ee20f5aa0"><path d="M 1162.960938 78.164062 L 1274.753906 78.164062 L 1274.753906 168.394531 L 1162.960938 168.394531 Z M 1162.960938 78.164062 " clip-rule="nonzero"/></clipPath><clipPath id="31937a4d6f"><path d="M 1162.960938 56.605469 L 1274.710938 56.605469 L 1274.710938 168.355469 L 1162.960938 168.355469 Z M 1162.960938 56.605469 " clip-rule="nonzero"/></clipPath><clipPath id="8dce385d89"><path d="M 1305.707031 78.164062 L 1417.5 78.164062 L 1417.5 168.394531 L 1305.707031 168.394531 Z M 1305.707031 78.164062 " clip-rule="nonzero"/></clipPath><clipPath id="64ad133327"><path d="M 1305.707031 56.605469 L 1417.457031 56.605469 L 1417.457031 168.355469 L 1305.707031 168.355469 Z M 1305.707031 56.605469 " clip-rule="nonzero"/></clipPath></defs><g clip-path="url(#3107f2a591)"><path fill="#5271ff" d="M 22.5 78.164062 L 134.234375 78.164062 L 134.234375 168.394531 L 22.5 168.394531 Z M 22.5 78.164062 " fill-opacity="1" fill-rule="nonzero"/></g><g clip-path="url(#08104cce3e)"><path stroke-linecap="butt" transform="matrix(0.75, 0, 0, 0.75, 22.499999, 56.603657)" fill="none" stroke-linejoin="miter" d="M 0.00000125 0.00241534 L 149.046882 0.00241534 L 149.046882 149.049297 L 0.00000125 149.049297 Z M 0.00000125 0.00241534 " stroke="#000000" stroke-width="14" stroke-opacity="1" stroke-miterlimit="4"/></g><g clip-path="url(#41fb370315)"><path fill="#5271ff" d="M 164.832031 78.164062 L 276.5625 78.164062 L 276.5625 168.394531 L 164.832031 168.394531 Z M 164.832031 78.164062 " fill-opacity="1" fill-rule="nonzero"/></g><g clip-path="url(#7bdfe69d8f)"><path stroke-linecap="butt" transform="matrix(0.75, 0, 0, 0.75, 164.830145, 56.603657)" fill="none" stroke-linejoin="miter" d="M 0.00251482 0.00241534 L 149.049396 0.00241534 L 149.049396 149.049297 L 0.00251482 149.049297 Z M 0.00251482 0.00241534 " stroke="#000000" stroke-width="14" stroke-opacity="1" stroke-miterlimit="4"/></g><g clip-path="url(#35504b2e48)"><path fill="#5271ff" d="M 307.578125 78.164062 L 419.308594 78.164062 L 419.308594 168.394531 L 307.578125 168.394531 Z M 307.578125 78.164062 " fill-opacity="1" fill-rule="nonzero"/></g><g clip-path="url(#ea7a80fcec)"><path stroke-linecap="butt" transform="matrix(0.75, 0, 0, 0.75, 307.577301, 56.603657)" fill="none" stroke-linejoin="miter" d="M 0.00109895 0.00241534 L 149.04798 0.00241534 L 149.04798 149.049297 L 0.00109895 149.049297 Z M 0.00109895 0.00241534 " stroke="#000000" stroke-width="14" stroke-opacity="1" stroke-miterlimit="4"/></g><g clip-path="url(#189cb5a76c)"><path fill="#5271ff" d="M 449.835938 78.164062 L 561.570312 78.164062 L 561.570312 168.394531 L 449.835938 168.394531 Z M 449.835938 78.164062 " fill-opacity="1" fill-rule="nonzero"/></g><g clip-path="url(#059e0babf8)"><path stroke-linecap="butt" transform="matrix(0.75, 0, 0, 0.75, 449.837453, 56.603657)" fill="none" stroke-linejoin="miter" d="M -0.00202101 0.00241534 L 149.04486 0.00241534 L 149.04486 149.049297 L -0.00202101 149.049297 Z M -0.00202101 0.00241534 " stroke="#000000" stroke-width="14" stroke-opacity="1" stroke-miterlimit="4"/></g><g clip-path="url(#8c294fc8df)"><path fill="#5271ff" d="M 592.167969 78.164062 L 703.898438 78.164062 L 703.898438 168.394531 L 592.167969 168.394531 Z M 592.167969 78.164062 " fill-opacity="1" fill-rule="nonzero"/></g><g clip-path="url(#3375ea2e00)"><path stroke-linecap="butt" transform="matrix(0.75, 0, 0, 0.75, 592.167575, 56.603657)" fill="none" stroke-linejoin="miter" d="M 0.000524565 0.00241534 L 149.047406 0.00241534 L 149.047406 149.049297 L 0.000524565 149.049297 Z M 0.000524565 0.00241534 " stroke="#000000" stroke-width="14" stroke-opacity="1" stroke-miterlimit="4"/></g><g clip-path="url(#a9a957d1b0)"><path fill="#5271ff" d="M 734.914062 78.164062 L 846.648438 78.164062 L 846.648438 168.394531 L 734.914062 168.394531 Z M 734.914062 78.164062 " fill-opacity="1" fill-rule="nonzero"/></g><g clip-path="url(#5e07bbd508)"><path stroke-linecap="butt" transform="matrix(0.75, 0, 0, 0.75, 734.914721, 56.603657)" fill="none" stroke-linejoin="miter" d="M -0.000878505 0.00241534 L 149.046003 0.00241534 L 149.046003 149.049297 L -0.000878505 149.049297 Z M -0.000878505 0.00241534 " stroke="#000000" stroke-width="14" stroke-opacity="1" stroke-miterlimit="4"/></g><g clip-path="url(#61d02984b3)"><path fill="#5271ff" d="M 877.882812 78.164062 L 989.617188 78.164062 L 989.617188 168.394531 L 877.882812 168.394531 Z M 877.882812 78.164062 " fill-opacity="1" fill-rule="nonzero"/></g><g clip-path="url(#74b25fee25)"><path stroke-linecap="butt" transform="matrix(0.75, 0, 0, 0.75, 877.882811, 56.603657)" fill="none" stroke-linejoin="miter" d="M 0.00000143794 0.00241534 L 149.046883 0.00241534 L 149.046883 149.049297 L 0.00000143794 149.049297 Z M 0.00000143794 0.00241534 " stroke="#000000" stroke-width="14" stroke-opacity="1" stroke-miterlimit="4"/></g><g clip-path="url(#b85b1ca1e0)"><path fill="#5271ff" d="M 1020.210938 78.164062 L 1131.945312 78.164062 L 1131.945312 168.394531 L 1020.210938 168.394531 Z M 1020.210938 78.164062 " fill-opacity="1" fill-rule="nonzero"/></g><g clip-path="url(#12371ec2ef)"><path stroke-linecap="butt" transform="matrix(0.75, 0, 0, 0.75, 1020.212885, 56.603657)" fill="none" stroke-linejoin="miter" d="M -0.00259732 0.00241534 L 149.044284 0.00241534 L 149.044284 149.049297 L -0.00259732 149.049297 Z M -0.00259732 0.00241534 " stroke="#000000" stroke-width="14" stroke-opacity="1" stroke-miterlimit="4"/></g><g clip-path="url(#3ee20f5aa0)"><path fill="#5271ff" d="M 1162.960938 78.164062 L 1274.691406 78.164062 L 1274.691406 168.394531 L 1162.960938 168.394531 Z M 1162.960938 78.164062 " fill-opacity="1" fill-rule="nonzero"/></g><g clip-path="url(#31937a4d6f)"><path stroke-linecap="butt" transform="matrix(0.75, 0, 0, 0.75, 1162.960152, 56.603657)" fill="none" stroke-linejoin="miter" d="M 0.00104794 0.00241534 L 149.047929 0.00241534 L 149.047929 149.049297 L 0.00104794 149.049297 Z M 0.00104794 0.00241534 " stroke="#000000" stroke-width="14" stroke-opacity="1" stroke-miterlimit="4"/></g><g clip-path="url(#8dce385d89)"><path fill="#5271ff" d="M 1305.707031 78.164062 L 1417.441406 78.164062 L 1417.441406 168.394531 L 1305.707031 168.394531 Z M 1305.707031 78.164062 " fill-opacity="1" fill-rule="nonzero"/></g><g clip-path="url(#64ad133327)"><path stroke-linecap="butt" transform="matrix(0.75, 0, 0, 0.75, 1305.707298, 56.603657)" fill="none" stroke-linejoin="miter" d="M -0.000355127 0.00241534 L 149.046526 0.00241534 L 149.046526 149.049297 L -0.000355127 149.049297 Z M -0.000355127 0.00241534 " stroke="#000000" stroke-width="14" stroke-opacity="1" stroke-miterlimit="4"/></g></svg>

<svg xmlns="http://www.w3.org/2000/svg" width="1920" height="300" viewBox="0 0 1440 225"><defs><clipPath id="a"><path d="M22.5 78.164h111.793v90.23H22.5Zm0 0"/></clipPath><clipPath id="b"><path d="M22.5 56.605h111.75v111.75H22.5Zm0 0"/></clipPath><clipPath id="c"><path d="M164.832 78.164h111.79v90.23h-111.79Zm0 0"/></clipPath><clipPath id="d"><path d="M164.832 56.605h111.75v111.75h-111.75Zm0 0"/></clipPath><clipPath id="e"><path d="M307.578 78.164h111.793v90.23H307.578Zm0 0"/></clipPath><clipPath id="f"><path d="M307.578 56.605h111.75v111.75h-111.75Zm0 0"/></clipPath><clipPath id="g"><path d="M449.836 78.164h111.793v90.23H449.836Zm0 0"/></clipPath><clipPath id="h"><path d="M449.836 56.605h111.75v111.75h-111.75Zm0 0"/></clipPath><clipPath id="i"><path d="M592.168 78.164h111.793v90.23H592.168Zm0 0"/></clipPath><clipPath id="j"><path d="M592.168 56.605h111.75v111.75h-111.75Zm0 0"/></clipPath><clipPath id="k"><path d="M734.914 78.164h111.793v90.23H734.914Zm0 0"/></clipPath><clipPath id="l"><path d="M734.914 56.605h111.75v111.75h-111.75Zm0 0"/></clipPath><clipPath id="m"><path d="M877.883 78.164h111.793v90.23H877.883Zm0 0"/></clipPath><clipPath id="n"><path d="M877.883 56.605h111.75v111.75h-111.75Zm0 0"/></clipPath><clipPath id="o"><path d="M1020.21 78.164H1132v90.23h-111.79Zm0 0"/></clipPath><clipPath id="p"><path d="M1020.21 56.605h111.75v111.75h-111.75Zm0 0"/></clipPath><clipPath id="q"><path d="M1162.96 78.164h111.794v90.23H1162.96Zm0 0"/></clipPath><clipPath id="r"><path d="M1162.96 56.605h111.75v111.75h-111.75Zm0 0"/></clipPath><clipPath id="s"><path d="M1305.707 78.164H1417.5v90.23h-111.793Zm0 0"/></clipPath><clipPath id="t"><path d="M1305.707 56.605h111.75v111.75h-111.75Zm0 0"/></clipPath></defs><g clip-path="url(#a)"><path fill="#5271ff" d="M22.5 78.164h111.734v90.23H22.5Zm0 0"/></g><g clip-path="url(#b)"><path fill="none" stroke="#000" stroke-width="10.5" d="M22.5 56.605h111.785v111.786H22.5Zm0 0"/></g><g clip-path="url(#c)"><path fill="#5271ff" d="M164.832 78.164h111.73v90.23h-111.73Zm0 0"/></g><g clip-path="url(#d)"><path fill="none" stroke="#000" stroke-width="10.5" d="M164.832 56.605h111.785v111.786H164.832Zm0 0"/></g><g clip-path="url(#e)"><path fill="#5271ff" d="M307.578 78.164h111.73v90.23h-111.73Zm0 0"/></g><g clip-path="url(#f)"><path fill="none" stroke="#000" stroke-width="10.5" d="M307.578 56.605h111.785v111.786H307.578Zm0 0"/></g><g clip-path="url(#g)"><path fill="#5271ff" d="M449.836 78.164H561.57v90.23H449.836Zm0 0"/></g><g clip-path="url(#h)"><path fill="none" stroke="#000" stroke-width="10.5" d="M449.836 56.605H561.62v111.786H449.836Zm0 0"/></g><g clip-path="url(#i)"><path fill="#5271ff" d="M592.168 78.164h111.73v90.23h-111.73Zm0 0"/></g><g clip-path="url(#j)"><path fill="none" stroke="#000" stroke-width="10.5" d="M592.168 56.605h111.785v111.786H592.168Zm0 0"/></g><g clip-path="url(#k)"><path fill="#5271ff" d="M734.914 78.164h111.734v90.23H734.914Zm0 0"/></g><g clip-path="url(#l)"><path fill="none" stroke="#000" stroke-width="10.5" d="M734.914 56.605H846.7v111.786H734.914Zm0 0"/></g><g clip-path="url(#m)"><path fill="#5271ff" d="M877.883 78.164h111.734v90.23H877.883Zm0 0"/></g><g clip-path="url(#n)"><path fill="none" stroke="#000" stroke-width="10.5" d="M877.883 56.605h111.785v111.786H877.883Zm0 0"/></g><g clip-path="url(#o)"><path fill="#5271ff" d="M1020.21 78.164h111.735v90.23h-111.734Zm0 0"/></g><g clip-path="url(#p)"><path fill="none" stroke="#000" stroke-width="10.5" d="M1020.21 56.605h111.786v111.786h-111.785Zm0 0"/></g><g clip-path="url(#q)"><path fill="#5271ff" d="M1162.96 78.164h111.731v90.23h-111.73Zm0 0"/></g><g clip-path="url(#r)"><path fill="none" stroke="#000" stroke-width="10.5" d="M1162.96 56.605h111.786v111.786h-111.785Zm0 0"/></g><g clip-path="url(#s)"><path fill="#5271ff" d="M1305.707 78.164h111.734v90.23h-111.734Zm0 0"/></g><g clip-path="url(#t)"><path fill="none" stroke="#000" stroke-width="10.5" d="M1305.707 56.605h111.785v111.786h-111.785Zm0 0"/></g></svg>
